X:2
T:Benjy Met the Bear / Taps / My Dame Had a Lame Tame Crane
M:4/4
L:1/16
K:C
V:1
% oboe
%%MIDI program 68
E3 E E3 E B6 B2| e4 d4 c4 B3 B| c4 B4 A4 G3 G| A4 G4 F4 E4||E3 E E3 E B6 B2| e4 d4 c4 B3 B| c4 B4 A4 G3 G| A4 G4 F4 E4||E3 E E3 E B6 B2| e4 d4 c4 B3 B| c4 B4 A4 G3 G| A4 G4 F4 E4||E3 E E3 E B6 B2| e4 d4 c4 B3 B| c4 B4 A4 G3 G| A4 G4 F4 E4||z16|z16|z16|z16|z16|z16||
w:Ben-jy met the bear, the bear met Ben-jy, the bear was bul-gy, the bulge was Ben-jy.
V:2
% trumpet
%%MIDI program 56
z16|z16|z16|z8 z4 G3 G| c12 G3 c| e12 G3 c| e4 G3 c e4 G3 c| e12 c3 e| g8 e4 c4| G12 G3 G|c8 z4 G3 G| c12 G3 c| e12 G3 c| e4 G3 c e4 G3 c| e12 c3 e| g8 e4 c4| G12 G3 G|c8 z8||z16|z16|z16|z16||
w:Day is done Gone the sun From the lake From the hill From the sky All is well Safe-ly rest God is nigh.
V:3
% cello
%%MIDI program 42
z16|z16|z16|z16|z16|z8 z4 G,4| C4 B,2C2 D4 G,4| C12 G,4| E4 D2E2 F4 E2D2| G16| G4 G2E2 F4 E2D2|E4 C4 D4 G,4| C4 B,2C2 D4 G,4| C12 G,4| C4 B,2C2 D4 G,4| C12 G,4| E4 D2E2 F4 E2D2| G16| G4 G2E2 F4 E2D2|E4 C4 D4 G,4| C4 B,2C2 D4 G,4| C12 z4||
w:My dame had a lame tame crane. My dame had a crane that was lame. Come, Mis-tress Jane, can my dame's lame tame crane Fly and re-turn a-gain

